X: 1174
T: İzmir`in Kavakları
C: Ekrem Güyer
O: Turkey
F: http://compmusic.upf.edu/node/140
N: segah--turku--aksak--izmirin_kavaklari--
N: makam= segah
N: form= turku
N: usul= aksak = 9/8
M: 9/8
L: 1/16
K: C _1/4B _1/4e ^f 
Q: 1/4=120
%%MIDI tuningsystem comma53
fg2g g2d2 e2f2 g2=f2 e2 | d3e=fe2ddc cBe6  | \
w:  ARANAĞME  |   | 
z2de =f2ed d2cB Bcd2 cB | 
w:   | 
B4Bg =fedc B^ABc de^fg  | fg2g g2d2 e2f2 g2=f2 e2 | 
w:   |  ARANAĞME  | 
d3e=fe2ddc cBe6  | z2de =f2ed d2cB Bcd2 cB | 
w:   |   | 
B4Bg =fedc B^AB3cBA  | G2BB B2d2 c2BA G6 | 
w:   |  *  İz mir_ in  ka vak la *  rı    | 
z2 ggg2 gff2 ede2 f2ed  | d4 dg=fe dcB^A B3c BA | 
w:  Dö kü lür  yap *  rak *  *  la  |  rı   *  SAZ  | 
G2 BBB2 d2c2 BAG6  | z2gg g2gf f2ed e2f2 ed | 
w:  *  İz mir_ in  ka vak la *  rı    |  Dö kü lür  yap *  rak *  *  la  | 
d4dg =fedc B^ABc de^fg  | gggg g2d2 e2f2 g2=f2 e2 | 
w:  rı   SAZ  |  Bi ze  *  de  der ler  Ça kı cı    | 
d3e=fe2ddc cBe6  | z2de =f2ed d2cB Bcd2 cB | 
w:  Yâr  *  fi dan  *  boy *  *  *  lum    |  Ya ka rız  ko *  nak *  *  la  | 
B4Bg =fedc B^ABc de^fg  | gggg g2d2 e2f2 g2=f2 e2 | 
w:  rı   SAZ  |  Bi ze  *  de  der ler  Ça kı cı    | 
d3e=fe2ddc cBe6  | z2de =f2ed d2cB Bcd2 cB | 
w:  Yâr  *  fi dan  *  boy *  *  *  lum    |  Ya ka rız  ko *  nak *  *  la  | 
B4^A4G2 A2B4z2  | fg2g g2d2 e2f2 g2=f2 e2 | \
w:  rı   SAZ  |  ARANAĞME  | 
d3e=fe2ddc cBe6  | 
w:   | 
z2de =f2ed d2cB Bcd2 cB | B4Bg =fedc B^ABc de^fg  | 
w:   |   | 
fg2g g2d2 e2f2 g2=f2 e2 | d3e=fe2ddc cBe6  | \
w:  ARANAĞME  |   | 
z2de =f2ed d2cB Bcd2 cB | 
w:   | 
B4Bg =fedc B^AB3cBA  | G2BB B2d2 c2BA G6 | 
w:   |  *  Ser vim  sen den  u zun  *  yok    | 
z2 ggg2 gff2 ede2 f2ed  | d4 dg=fe dcB^A B3c BA | 
w:  Yap ra ğın da  *  dü *  *  züm   |  yok   *  SAZ  | 
G2 BBB2 d2c2 BAG6  | z2gg g2gf f2ed e2f2 ed | 
w:  *  Ser vim  sen den  u zun  *  yok    |  Yap ra ğın da  *  dü *  *  züm   | 
d4dg =fedc B^ABc de^fg  | gggg g2d2 e2f2 g2=f2 e2 | 
w:  yok   SAZ  |  Ka ma lı  da  zey bek  vu rul muş    | 
d3e=fe2ddc cBe6  | z2de =f2ed d2cB Bcd2 cB | 
w:  Yâr  *  fi dan  *  boy *  *  *  lu    |  Ça kı cı ya  *  sö *  *  züm   | 
B4Bg =fedc B^ABc de^fg  | gggg g2d2 e2f2 g2=f2 e2 | 
w:  yok   SAZ  |  Ka ma lı  da  zey bek  vu rul muş    | 
d3e=fe2ddc cBe6  | z2de =f2ed d2cB Bcd2 cB | 
w:  Yâr  *  fi dan  *  boy *  *  *  lu    |  Ça kı cı ya  *  sö *  *  züm   | 
B4^A4G2 A2B4z2  | |


